X: 9585
T: David's Dream
R: reel
M: 4/4
K: Dmajor
~A3B d2ed|f2ed BE EB|AFAB dBAF|GAFG EFFE|
AFAB d2ed|f2ed BE EB|AFAB dfaf|gafg e2eg||
fdad fd (3ddd|fdaf geeg|fdad fdBd|AFGE FDDg|
fdad fd (3ddd|fdaf geeg|fbaf gfef|afef dBAF||

